X:13
T:Dying Year, The
C:Joe Buchanan's Scottish Tome - Page 513.0
I:513 0
Z:Carl Allison
R:Air
L:1/8
M:4/4
K:D
AB/c/ | d3 A F2 D2 | {G,}B3 G E2 C2 | A,3 G F2 E2 | {DE}F2 A2 B2 c2 |
d3 A F2 D2 | {G,}B3 G E2 C2 | A, G F2 E2 | {DE}F D3 D2 :|
d2 | f3 d d2 f2 | e2 c2 A2 =c | B3 G d2 B2 | A2 F2 D2 EF |
G3 A B2 G2 | F3 G A2 F2 | E3 F E2 D2 | C A,3 B, G2 |
F D3 A F3 | d3 A F2 D2 | G,3 B B2 d2 | c2 A2 B2 c2 |
d3 A F2 D2 | {G,}B3 G E2 C2 | A,3 G F2 E2 | {DE}F D3 D2 |
